src/icons/svg/outlook.svg

<!--character:E181-->
<!--added:0.33.2-->
<svg xmlns="http://www.w3.org/2000/svg" width="24" height="24" viewBox="0 0 24 24">
  <g fill="#0072C6">
    <path d="M14.4166379,6.25315048 L14.4166379,10.1770491 L15.7878929,11.0404878 C15.8240579,11.0510359 15.9024152,11.0517897 15.9385802,11.0404878 L21.84025,7.06158818 C21.84025,6.5906901 21.4009962,6.25315048 21.1531162,6.25315048 L14.4166379,6.25315048 Z"/>
    <path d="M14.4166379 11.6409768L15.6680964 12.5006482C15.8444006 12.6302393 16.0568698 12.5006482 16.0568698 12.5006482 15.8451541 12.6302393 21.8410039 8.6475726 21.8410039 8.6475726L21.8410039 15.8594693C21.8410039 16.6445505 21.3384616 16.9738022 20.7733841 16.9738022L14.4158845 16.9738022 14.4158845 11.6409768 14.4166379 11.6409768zM7.93708174 9.83197522C7.51063653 9.83197522 7.17083655 10.0323894 6.9199421 10.4324643 6.66904766 10.8325392 6.54322372 11.3622053 6.54322372 12.0214625 6.54322372 12.6905143 6.66904766 13.2194269 6.9199421 13.6082003 7.17083655 13.9977271 7.50008842 14.1913604 7.90694427 14.1913604 8.32660855 14.1913604 8.6596276 14.0022477 8.90524799 13.6240225 9.15086838 13.2457972 9.27443201 12.7206518 9.27443201 12.0493396 9.27443201 11.3493969 9.155389 10.8046621 8.91654954 10.4151353 8.67771009 10.0263619 8.35147196 9.83197522 7.93708174 9.83197522z"/>
    <path d="M2,4.26031031 L2,19.6115845 L13.6782699,22.060254 L13.6782699,2 L2,4.26031031 Z M9.81464617,14.5311603 C9.32114509,15.1806228 8.67771009,15.5061075 7.88358773,15.5061075 C7.10980817,15.5061075 6.47993503,15.191171 5.99246144,14.5620513 C5.50574129,13.9321781 5.26162777,13.1124389 5.26162777,12.1013268 C5.26162777,11.0337069 5.50875503,10.1702683 6.00376299,9.51101115 C6.49877095,8.85175398 7.15426094,8.52174867 7.97023296,8.52174867 C8.74099877,8.52174867 9.36484442,8.83668524 9.84026302,9.46806526 C10.3164351,10.0994453 10.5545211,10.9312395 10.5545211,11.9642013 C10.5552745,13.0257937 10.3081473,13.8816979 9.81464617,14.5311603 Z"/>
  </g>
</svg>

<!--character:E181-->
<!--added:0.33.2-->
<svg width="24" height="24" viewBox="0 0 24 24" xmlns="http://www.w3.org/2000/svg"><path d="M14.4166 6.2532v3.9238l1.3713.8635c.0362.0105.1145.0113.1507 0l5.9017-3.979c0-.4708-.4393-.8083-.6872-.8083h-6.7365z" fill="#0072C6"/><path d="M14.4166 11.641l1.2515.8596c.1763.1296.3888 0 .3888 0-.2117.1296 5.7841-3.853 5.7841-3.853v7.2119c0 .785-.5025 1.1143-1.0676 1.1143h-6.3575V11.641h.0007zM7.937 9.832c-.4264 0-.7662.2004-1.017.6005-.251.4-.3768.9297-.3768 1.589 0 .669.1258 1.198.3767 1.5867.251.3895.5802.5832.987.5832.4197 0 .7527-.1892.9983-.5674.2457-.3782.3692-.9033.3692-1.5747 0-.6999-.119-1.2446-.3579-1.6342-.2388-.3887-.565-.5831-.9794-.5831z" fill="#0072C6"/><path d="M2 4.2603v15.3513l11.6783 2.4487V2L2 4.2603zm7.8146 10.2709c-.4935.6494-1.1369.975-1.931.975-.7738 0-1.4037-.315-1.8911-.9441-.4868-.63-.7309-1.4497-.7309-2.4608 0-1.0676.2472-1.931.7422-2.5903.495-.6592 1.1505-.9893 1.9664-.9893.7708 0 1.3946.315 1.87.9464.4762.6313.7143 1.4631.7143 2.4961.0008 1.0616-.2464 1.9175-.7399 2.567z" fill="#0072C6"/></svg>
